!!!OTL-incipit: WIR WAREN UNSER EINS, WIR WAREN UNSER ZWEI
!!!ARE: Europa, Mitteleuropa, Deutschland, Halle
!!!SCT: Z0217
!!!TXL: @@DE
!!!YEM: Copyright 1995, estate of Helmut Schaffrath.
**kern	**text
*ICvox	*
*M2/4	*
*k[b-]	*
*F:	*
!LO:TX:a:t=Jn Halle vor vierʒig Jahren gehört.	!
!LO:TX:a:t=Handwerksburſchenlied.	!
{8c	Wir
=1	=1
8f	wa-
8f	-ren
8f	un-
8f	-ſer
=2	=2
4f	eins,
8r}	.
{8g	wir
=3	=3
8a	wa-
8a	-ren
8a	un-
8a	-ſer
=4	=4
4a	ʒwei,
4r}	.
=5	=5
{4cc	wer
4cc	ſteigt
=6	=6
8ddL	nun
8ccJ	.
8b-	ʒu
8a	der
=7	=7
4g	Jungfer
4g	.
=8	=8
2g}	nei?
=9	=9
!LO:TX:a:t=Ich Bruder? Du Bruder? Ja wohl, Bruder! Ei den Teufel, Bruder!	!
{4cc	Je
8ff	nun,
8cc	ſo
=10	=10
8cc	denk
8b-	ich
8b-	denn
8b-	in
=11	=11
8a	meinem
8f	.
8cc	meinem
8a	.
=12	=12
2g}	Sinn,
=13	=13
{4cc	ſteig
8ff	du
8cc	ʒur
=14	=14
8cc	Jungfer
8b-	.
8b-	.
8b-	ʒur
=15	=15
8a	Jungfer
8f	.
8cc	im-
8a	-mer-
=16	=16
4.g}	-hin.
{8c	Schwarʒ-
=17	=17
4.f	-brau-
8g	-nes
=18	=18
4a	Mäg-
4b-/	-de-
=19	=19
2g}	-lein,
=20	=20
{2b-	ſteh
=21	=21
(8b-/	auf
8a)	.
(8g	und
8f)	.
=22	=22
4cc	laß
4cc	mich
=23	=23
4f	ein.
8r}	.
==	==
!!!AGN: Romanze, Handwerks - Burschen - Lied
!!!ONB: ESAC (Essen Associative Code) Database: ZUCCAL
!!!AMT: simple duple
!!!AIN: vox
!!!EED: Helmut Schaffrath
!!!EEV: 1.0
!!!GTL: III. Soldaten-, Jaeger-, Schiffer-, Fuhrmanns- und Handwerks-Lieder.
!!!URL-scan: https://www.digitale-sammlungen.de/de/view/bsb11160571?page=404
!!!ENC: Anna Maria Matuszewska
!!!EEV: 2025/01/29
*-	*-
